src/assets/animalImage/img/unknown01.svg

<?xml version="1.0" encoding="UTF-8" standalone="no"?><!DOCTYPE svg PUBLIC "-//W3C//DTD SVG 1.1//EN" "http://www.w3.org/Graphics/SVG/1.1/DTD/svg11.dtd"><svg width="100%" height="100%" viewBox="0 0 161 273" version="1.1" xmlns="http://www.w3.org/2000/svg" xmlns:xlink="http://www.w3.org/1999/xlink" xml:space="preserve" style="fill-rule:evenodd;clip-rule:evenodd;stroke-linejoin:round;stroke-miterlimit:1.41421;"><path d="M118.326,126.054c-0.085,-5.846 -3.241,-14.228 -7.622,-18.097c-24.9,-21.975 -47.103,-10.206 -58.244,-1.1c-4.522,3.697 -8.369,12.051 -9.088,17.857c-8.531,68.631 14.663,118.184 30.091,143.797c3.025,4.996 8.966,5.518 12.469,0.846c31.831,-42.481 32.815,-114.875 32.394,-143.303Z" style="fill:#f2675e;fill-rule:nonzero;"/><path d="M108.404,74.417c-3.913,0 -7.103,-3.184 -7.103,-7.106c0,-3.91 3.187,-7.107 7.103,-7.107c3.915,0 7.106,3.191 7.106,7.107c0,3.922 -3.191,7.106 -7.106,7.106Zm-56.382,0c-3.918,0 -7.1,-3.184 -7.1,-7.106c0,-3.91 3.182,-7.107 7.1,-7.107c3.922,0 7.107,3.191 7.107,7.107c0,3.922 -3.185,7.106 -7.107,7.106Zm98.997,-16.641c-10.543,-54.634 -47.784,-57.734 -71.353,-57.734c-61.453,-1.863 -72.619,58.959 -72.619,58.959c-22.965,107.369 16.75,162.594 26.063,169.416c2.334,1.872 4.69,3.562 7.056,5.053c4.047,2.55 5.841,-0.238 3.978,-5.775c-12.284,-36.375 -15.293,-75.306 -8.647,-115.041c0.269,-1.597 0.938,-3.106 1.95,-4.368c0.728,-0.922 18.179,-22.394 43.825,-22.394c15.694,0 30.516,7.837 44.041,23.309c1.513,1.735 2.353,3.963 2.353,6.272c0,0.903 0.028,2.275 0.066,4.038c0.278,12.265 0.919,40.947 -3.85,72.784c-1.825,12.159 -4.235,23.447 -7.225,33.841c-1.628,5.615 -2.547,9.765 -1.772,9.322c0.525,-0.294 0.994,-0.572 1.384,-0.832c68.263,-49.625 37.228,-165.068 34.75,-176.85Z" style="fill:#54c1ee;fill-rule:nonzero;"/><path d="M51.019,59.458c5.235,0 9.475,4.24 9.475,9.474c0,5.235 -4.24,9.482 -9.475,9.482c-5.234,0 -9.478,-4.247 -9.478,-9.482c0,-5.234 4.244,-9.474 9.478,-9.474Z" style="fill:#fff;fill-rule:nonzero;"/><path d="M110.485,59.458c5.237,0 9.481,4.24 9.481,9.474c0,5.235 -4.244,9.482 -9.481,9.482c-5.228,0 -9.475,-4.247 -9.475,-9.482c0,-5.234 4.247,-9.474 9.475,-9.474Z" style="fill:#fff;fill-rule:nonzero;"/><path d="M110.485,64.432c3.866,0 6.991,3.132 6.991,6.991c0,3.859 -3.125,6.991 -6.991,6.991c-3.856,0 -6.988,-3.132 -6.988,-6.991c0,-3.859 3.132,-6.991 6.988,-6.991Z" style="fill:#392e2a;fill-rule:nonzero;"/><path d="M51.019,64.432c3.863,0 6.988,3.132 6.988,6.991c0,3.859 -3.125,6.991 -6.988,6.991c-3.859,0 -6.99,-3.132 -6.99,-6.991c0,-3.859 3.131,-6.991 6.99,-6.991Z" style="fill:#392e2a;fill-rule:nonzero;"/></svg>

<?xml version="1.0" encoding="UTF-8" standalone="no"?>
<!DOCTYPE svg PUBLIC "-//W3C//DTD SVG 1.1//EN" "http://www.w3.org/Graphics/SVG/1.1/DTD/svg11.dtd">
<svg width="100%" height="100%" viewBox="0 0 273 273" version="1.1" xmlns="http://www.w3.org/2000/svg" xmlns:xlink="http://www.w3.org/1999/xlink" xml:space="preserve" xmlns:serif="http://www.serif.com/" style="fill-rule:evenodd;clip-rule:evenodd;stroke-linejoin:round;stroke-miterlimit:1.41421;">
    <g transform="matrix(1,0,0,1,56,0)">
        <path d="M118.326,126.054C118.241,120.208 115.085,111.826 110.704,107.957C85.804,85.982 63.601,97.751 52.46,106.857C47.938,110.554 44.091,118.908 43.372,124.714C34.841,193.345 58.035,242.898 73.463,268.511C76.488,273.507 82.429,274.029 85.932,269.357C117.763,226.876 118.747,154.482 118.326,126.054Z" style="fill:rgb(242,103,94);fill-rule:nonzero;"/>
    </g>
    <g transform="matrix(1,0,0,1,56,0)">
        <path d="M108.404,74.417C104.491,74.417 101.301,71.233 101.301,67.311C101.301,63.401 104.488,60.204 108.404,60.204C112.319,60.204 115.51,63.395 115.51,67.311C115.51,71.233 112.319,74.417 108.404,74.417ZM52.022,74.417C48.104,74.417 44.922,71.233 44.922,67.311C44.922,63.401 48.104,60.204 52.022,60.204C55.944,60.204 59.129,63.395 59.129,67.311C59.129,71.233 55.944,74.417 52.022,74.417ZM151.019,57.776C140.476,3.142 103.235,0.042 79.666,0.042C18.213,-1.821 7.047,59.001 7.047,59.001C-15.918,166.37 23.797,221.595 33.11,228.417C35.444,230.289 37.8,231.979 40.166,233.47C44.213,236.02 46.007,233.232 44.144,227.695C31.86,191.32 28.851,152.389 35.497,112.654C35.766,111.057 36.435,109.548 37.447,108.286C38.175,107.364 55.626,85.892 81.272,85.892C96.966,85.892 111.788,93.729 125.313,109.201C126.826,110.936 127.666,113.164 127.666,115.473C127.666,116.376 127.694,117.748 127.732,119.511C128.01,131.776 128.651,160.458 123.882,192.295C122.057,204.454 119.647,215.742 116.657,226.136C115.029,231.751 114.11,235.901 114.885,235.458C115.41,235.164 115.879,234.886 116.269,234.626C184.532,185.001 153.497,69.558 151.019,57.776Z" style="fill:rgb(84,193,238);fill-rule:nonzero;"/>
    </g>
    <g transform="matrix(1,0,0,1,56,0)">
        <path d="M51.019,59.458C56.254,59.458 60.494,63.698 60.494,68.932C60.494,74.167 56.254,78.414 51.019,78.414C45.785,78.414 41.541,74.167 41.541,68.932C41.541,63.698 45.785,59.458 51.019,59.458Z" style="fill:white;fill-rule:nonzero;"/>
    </g>
    <g transform="matrix(1,0,0,1,56,0)">
        <path d="M110.485,59.458C115.722,59.458 119.966,63.698 119.966,68.932C119.966,74.167 115.722,78.414 110.485,78.414C105.257,78.414 101.01,74.167 101.01,68.932C101.01,63.698 105.257,59.458 110.485,59.458Z" style="fill:white;fill-rule:nonzero;"/>
    </g>
    <g transform="matrix(1,0,0,1,56,0)">
        <path d="M110.485,64.432C114.351,64.432 117.476,67.564 117.476,71.423C117.476,75.282 114.351,78.414 110.485,78.414C106.629,78.414 103.497,75.282 103.497,71.423C103.497,67.564 106.629,64.432 110.485,64.432Z" style="fill:rgb(57,46,42);fill-rule:nonzero;"/>
    </g>
    <g transform="matrix(1,0,0,1,56,0)">
        <path d="M51.019,64.432C54.882,64.432 58.007,67.564 58.007,71.423C58.007,75.282 54.882,78.414 51.019,78.414C47.16,78.414 44.029,75.282 44.029,71.423C44.029,67.564 47.16,64.432 51.019,64.432Z" style="fill:rgb(57,46,42);fill-rule:nonzero;"/>
    </g>
</svg>
